app/img/logo-blue-mb.svg

<svg width="79" height="31" viewBox="0 0 79 31" fill="none" xmlns="http://www.w3.org/2000/svg">
<path d="M5.67563 28.5457C5.67563 27.99 5.48495 27.5214 5.10903 27.1346C4.73312 26.7478 4.27549 26.5571 3.74158 26.5571C3.2567 26.5571 2.8372 26.7097 2.48308 27.0202C2.13441 27.3253 1.91649 27.6958 1.83477 28.1371H1.3172V26.6388H0.5V30.4525H1.3172V28.8998H1.83477C1.91649 29.3629 2.13441 29.7551 2.48308 30.0657C2.83176 30.3762 3.25126 30.5342 3.74158 30.5342C4.27549 30.5342 4.73312 30.3435 5.10903 29.9567C5.48495 29.5753 5.67563 29.1014 5.67563 28.5457ZM4.85842 28.5457C4.85842 28.9052 4.74946 29.2049 4.53154 29.4391C4.30817 29.6788 4.04667 29.7987 3.74158 29.7987C3.43649 29.7987 3.17498 29.6788 2.95706 29.4391C2.73369 29.2049 2.62473 28.9052 2.62473 28.5457C2.62473 28.1861 2.73369 27.8864 2.95706 27.6467C3.17498 27.4125 3.43649 27.2926 3.74158 27.2926C4.04667 27.2926 4.30817 27.4125 4.53154 27.6467C4.74946 27.8864 4.85842 28.1861 4.85842 28.5457Z" fill="#46466E"/>
<path d="M6.98022 26.6392V30.4528H7.79743V29.1997H8.58739C8.97965 29.1997 9.30653 29.0744 9.56259 28.8293C9.81865 28.5841 9.9494 28.279 9.9494 27.9194C9.9494 27.5544 9.81865 27.2548 9.56259 27.0042C9.30109 26.759 8.97965 26.6392 8.58739 26.6392H6.98022ZM8.56015 27.3746C8.72359 27.3746 8.8598 27.4291 8.96876 27.5326C9.07772 27.6361 9.1322 27.7669 9.1322 27.9194C9.1322 28.072 9.07772 28.2027 8.96876 28.3063C8.8598 28.4098 8.72359 28.4642 8.56015 28.4642H7.79743V27.3746H8.56015Z" fill="#46466E"/>
<path d="M14.6306 30.4528V26.6392H13.9224L12.0428 29.0635V26.6392H11.2256V30.4528H11.9338L13.8134 28.0284V30.4528H14.6306Z" fill="#46466E"/>
<path d="M15.6624 29.7173V31.2427H16.4796V30.4528H18.7677V31.2427H19.5849V29.7173H19.1219V26.6392H16.4796V27.8105C16.4796 28.0665 16.4578 28.3063 16.4142 28.5296C16.3706 28.7584 16.3216 28.9382 16.2725 29.0744C16.2181 29.2052 16.1581 29.325 16.0873 29.4394C16.0165 29.5484 15.9729 29.6192 15.9457 29.6519C15.913 29.6792 15.8966 29.7064 15.8803 29.7173H15.6624ZM17.2968 27.8105V27.3746H18.3046V29.7173H16.6975L16.7629 29.6519C16.801 29.6083 16.85 29.5375 16.91 29.434C16.9699 29.3305 17.0244 29.2106 17.0843 29.0744C17.1442 28.9382 17.1933 28.753 17.2314 28.5296C17.275 28.3063 17.2968 28.0665 17.2968 27.8105Z" fill="#46466E"/>
<path d="M24.156 30.4528V26.6392H23.4478L21.5682 29.0635V26.6392H20.751V30.4528H21.4592L23.3388 28.0284V30.4528H24.156Z" fill="#46466E"/>
<path d="M26.441 26.6392H25.6238V27.8105C25.6238 28.2681 25.7436 28.6222 25.9833 28.8729C26.2285 29.1289 26.5608 29.2542 26.9858 29.2542C27.3508 29.2542 27.6504 29.1834 27.8847 29.0363V30.4528H28.7019V26.6392H27.8847V28.2463L27.7921 28.3172C27.7322 28.3607 27.6396 28.4043 27.5142 28.4534C27.3889 28.4969 27.2582 28.5187 27.122 28.5187C26.9041 28.5187 26.7352 28.4588 26.6153 28.3389C26.5009 28.2136 26.441 28.0393 26.441 27.8105V26.6392Z" fill="#46466E"/>
<path d="M33.4927 26.6392H32.6755V28.1646H31.0411V26.6392H30.2239V30.4528H31.0411V28.9001H32.6755V30.4528H33.4927V26.6392Z" fill="#46466E"/>
<path d="M36.9777 28.8456H36.0515L36.5146 27.5926L36.9777 28.8456ZM37.2501 29.5539L37.577 30.4528H38.4487L36.9505 26.6392H36.0788L34.5806 30.4528H35.4523L35.7791 29.5539H37.2501Z" fill="#46466E"/>
<path d="M42.0113 26.6392H41.1941V30.4528H42.0113V29.3632L42.5016 28.8184L43.6185 30.4528H44.5719L43.0464 28.2191L44.4629 26.6392H43.5095L42.0113 28.3008V26.6392Z" fill="#46466E"/>
<path d="M46.2307 28.5457C46.2307 28.197 46.3505 27.8973 46.5902 27.6576C46.8245 27.4125 47.1133 27.2926 47.4565 27.2926C47.7997 27.2926 48.0885 27.4125 48.3227 27.6576C48.5624 27.8973 48.6823 28.197 48.6823 28.5457C48.6823 28.8998 48.5624 29.194 48.3227 29.4337C48.0885 29.6789 47.7997 29.7987 47.4565 29.7987C47.1133 29.7987 46.8245 29.6789 46.5902 29.4337C46.3505 29.194 46.2307 28.8998 46.2307 28.5457ZM45.3862 28.5457C45.3862 29.0905 45.5878 29.5644 45.9855 29.9513C46.3832 30.3381 46.8735 30.5342 47.4565 30.5342C48.0394 30.5342 48.5297 30.3381 48.9274 29.9513C49.3252 29.5644 49.5267 29.0905 49.5267 28.5457C49.5267 27.9954 49.3252 27.5269 48.9274 27.1401C48.5297 26.7533 48.0394 26.5571 47.4565 26.5571C46.8735 26.5571 46.3832 26.7533 45.9855 27.1401C45.5878 27.5269 45.3862 27.9954 45.3862 28.5457Z" fill="#46466E"/>
<path d="M52.8743 28.3008L51.5668 26.6392H50.8313V30.4528H51.6485V27.9194L52.8743 29.4721L54.1001 27.9086V30.4528H54.9173V26.6392H54.1927L52.8743 28.3008Z" fill="#46466E"/>
<path d="M59.6798 26.6392H56.4382V30.4528H57.2554V27.3746H58.8626V30.4528H59.6798V26.6392Z" fill="#46466E"/>
<path d="M63.1652 28.8456H62.239L62.7021 27.5926L63.1652 28.8456ZM63.4376 29.5539L63.7645 30.4528H64.6362L63.138 26.6392H62.2663L60.7681 30.4528H61.6397L61.9666 29.5539H63.4376Z" fill="#46466E"/>
<path d="M68.9917 26.6392H68.1745V28.1646H66.5401V26.6392H65.7229V30.4528H66.5401V28.9001H68.1745V30.4528H68.9917V26.6392Z" fill="#46466E"/>
<path d="M71.3311 26.6392H70.5139V30.4528H71.3311V26.6392Z" fill="#46466E"/>
<path d="M75.6863 26.6392H73.9974C73.6161 26.6392 73.3055 26.759 73.0604 26.9987C72.8152 27.2384 72.6899 27.5381 72.6899 27.8922C72.6899 28.0448 72.7172 28.1864 72.7607 28.3226C72.8098 28.4588 72.8642 28.5623 72.9296 28.6386C72.9896 28.7149 73.0549 28.7857 73.1367 28.8511C73.2129 28.9164 73.2674 28.96 73.3001 28.9764C73.3273 28.9873 73.3546 29.0036 73.3709 29.0091L72.5537 30.4528H73.4254L74.1609 29.118H74.8691V30.4528H75.6863V26.6392ZM73.5071 27.8922C73.5071 27.7397 73.5561 27.6198 73.6542 27.5217C73.7523 27.4237 73.8776 27.3746 74.0247 27.3746H74.8691V28.3825H74.0247C73.8776 28.3825 73.7523 28.3335 73.6542 28.2409C73.5561 28.1483 73.5071 28.0284 73.5071 27.8922Z" fill="#46466E"/>
<path d="M2.99057 0H0.5V17.9875H2.99057V11.3143C2.99057 10.1854 3.27137 9.29477 3.83296 8.6676C4.39456 8.04042 5.16371 7.71429 6.11598 7.71429C6.93396 7.71429 7.61765 8.01533 8.16704 8.59233C8.71643 9.18188 8.99722 9.92195 8.99722 10.8125V18H11.5V10.8125C11.5 9.15679 11.0483 7.85226 10.1448 6.87387C9.2414 5.89547 8.05716 5.40627 6.61654 5.40627C6.20144 5.40627 5.78635 5.45645 5.38346 5.56934C4.96837 5.68223 4.63873 5.80767 4.37014 5.94564C4.10155 6.08362 3.84517 6.23415 3.61321 6.40976C3.38124 6.58537 3.22253 6.7108 3.14928 6.78606C3.07603 6.86132 3.01498 6.9115 2.99057 6.94913V0Z" fill="#F0145A"/>
<path d="M17.0675 0H14.5V17.9725H17.0675V0Z" fill="#323264"/>
<path d="M32.211 12.709L32.3394 11.4252C32.3394 9.70501 31.7745 8.2672 30.6192 7.11183C29.4638 5.95645 28.026 5.3916 26.3058 5.3916C24.5855 5.3916 23.0964 6.0078 21.864 7.2402C20.6316 8.4726 20.0154 9.93608 20.0154 11.682C20.0154 13.4792 20.6573 15.0197 21.9153 16.3035C23.1734 17.5872 24.6882 18.2291 26.4341 18.2291C27.1017 18.2291 27.7179 18.1264 28.3341 17.9467C28.9503 17.7413 29.4638 17.5359 29.8232 17.3305C30.2084 17.0994 30.5935 16.8427 30.9273 16.5602C31.261 16.2778 31.4921 16.0724 31.5948 15.944C31.6975 15.8157 31.7745 15.7386 31.8259 15.6616L30.157 13.9927L29.7719 14.4806C29.5151 14.7887 29.0787 15.0968 28.4625 15.4305C27.8206 15.7643 27.153 15.9184 26.4341 15.9184C25.4328 15.9184 24.5855 15.6103 23.8666 14.9684C23.1477 14.3265 22.7113 13.5819 22.5829 12.709H32.211ZM26.3058 7.57398C27.2557 7.57398 28.026 7.8564 28.6679 8.39558C29.2841 8.96043 29.6692 9.65366 29.8232 10.5266H22.6856C22.9167 9.65366 23.3275 8.96043 23.9693 8.39558C24.5855 7.8564 25.3815 7.57398 26.3058 7.57398Z" fill="#323264"/>
<path d="M44.1853 17.2278C44.1853 18.3575 43.8515 19.2818 43.1583 20.0007C42.4908 20.6939 41.6435 21.0534 40.5908 21.0534C40.1286 21.0534 39.6665 20.9763 39.23 20.848C38.7935 20.7196 38.4598 20.5655 38.1773 20.3858C37.8949 20.2061 37.6382 20.0264 37.3814 19.7953C37.1503 19.5642 36.9963 19.4102 36.9193 19.3331C36.8422 19.2561 36.7909 19.1791 36.7395 19.1277L35.0707 20.7966L35.2761 21.0534C35.4044 21.2331 35.6355 21.4642 35.9436 21.7209C36.2517 21.952 36.6112 22.2087 37.022 22.4655C37.4328 22.6966 37.9463 22.902 38.5881 23.0817C39.23 23.2614 39.8976 23.3641 40.5908 23.3641C42.3367 23.3641 43.7745 22.7736 44.9812 21.5925C46.1623 20.3858 46.7528 18.948 46.7528 17.2021V5.64835H44.1853V6.9321L43.7488 6.54698C43.4664 6.29023 43.0299 6.03348 42.4137 5.77673C41.7975 5.51998 41.13 5.3916 40.4624 5.3916C38.8962 5.3916 37.5611 5.98213 36.4058 7.18885C35.2504 8.39558 34.6855 9.83338 34.6855 11.5536C34.6855 13.2738 35.2504 14.7116 36.4058 15.9184C37.5611 17.1251 38.8962 17.7156 40.4624 17.7156C40.8989 17.7156 41.3097 17.6643 41.7462 17.5616C42.157 17.4332 42.4908 17.3048 42.7732 17.1764C43.0556 17.0481 43.3124 16.894 43.5434 16.7143C43.7745 16.5346 43.9542 16.4062 44.0056 16.3548L44.1853 16.1751V17.2278ZM37.253 11.5536C37.253 10.4753 37.5868 9.57663 38.28 8.83205C38.9733 8.08748 39.7949 7.70235 40.7192 7.70235C41.6435 7.70235 42.4651 8.08748 43.1583 8.83205C43.8259 9.57663 44.1853 10.4753 44.1853 11.5536C44.1853 12.632 43.8259 13.5306 43.1583 14.2752C42.4651 15.0197 41.6435 15.4049 40.7192 15.4049C39.7949 15.4049 38.9733 15.0197 38.28 14.2752C37.5868 13.5306 37.253 12.632 37.253 11.5536Z" fill="#323264"/>
<path d="M60.1546 17.9724V10.0131C60.1546 8.70368 59.6668 7.59965 58.7168 6.7267C57.7669 5.82808 56.5345 5.3916 55.0196 5.3916C54.4291 5.3916 53.8386 5.46863 53.2737 5.62268C52.7089 5.8024 52.2467 5.98213 51.913 6.18753C51.5792 6.39293 51.2454 6.624 50.9373 6.90643C50.6292 7.16318 50.4495 7.3429 50.3468 7.4456C50.2698 7.5483 50.1927 7.62533 50.1414 7.70235L51.8103 9.37123L52.144 8.93476C52.3494 8.65233 52.7089 8.39558 53.2481 8.11315C53.7872 7.83073 54.3778 7.70235 55.0196 7.70235C55.7642 7.70235 56.3804 7.93343 56.8682 8.3699C57.3561 8.80638 57.5871 9.37123 57.5871 10.0131L53.094 10.7834C51.99 10.9631 51.0914 11.3996 50.4752 12.0928C49.8333 12.786 49.4995 13.6333 49.4995 14.6346C49.4995 15.5846 49.9103 16.4062 50.7319 17.1251C51.5792 17.8697 52.6062 18.2291 53.8643 18.2291C54.3007 18.2291 54.7115 18.1778 55.1223 18.0494C55.5588 17.9467 55.8926 17.8183 56.175 17.6899C56.4574 17.5616 56.7142 17.4075 56.9453 17.2278C57.1763 17.0481 57.3304 16.9197 57.4331 16.8683C57.5101 16.7913 57.5615 16.7143 57.5871 16.6886V17.9724H60.1546ZM54.2494 15.9184C53.5818 15.9184 53.0427 15.7643 52.6575 15.4562C52.2467 15.1481 52.067 14.7887 52.067 14.3779C52.067 13.9414 52.1954 13.5563 52.4778 13.2738C52.7602 12.9914 53.1454 12.786 53.6075 12.709L57.5871 12.0671V12.3239C57.5871 13.4792 57.3047 14.3522 56.7142 14.9941C56.1237 15.6103 55.3021 15.9184 54.2494 15.9184Z" fill="#323264"/>
<path d="M65.8202 0H63.2527V17.9725H65.8202V0Z" fill="#323264"/>
<path d="M77.4944 7.06048L77.3403 6.88075C77.2376 6.77805 77.0836 6.64968 76.8525 6.46995C76.6214 6.29023 76.3647 6.13618 76.0822 5.95645C75.7998 5.8024 75.4147 5.67403 74.9525 5.54565C74.4904 5.44295 74.0026 5.3916 73.5147 5.3916C72.2567 5.3916 71.2297 5.75105 70.4081 6.46995C69.5608 7.21453 69.15 8.03613 69.15 8.98611C69.15 9.67933 69.304 10.2442 69.6121 10.7577C69.9202 11.2455 70.3054 11.605 70.7932 11.8104C71.2553 12.0414 71.7688 12.2725 72.308 12.4522C72.8472 12.632 73.335 12.786 73.8228 12.9144C74.285 13.0684 74.6701 13.2482 74.9782 13.4792C75.2863 13.7103 75.4404 14.0184 75.4404 14.3779C75.4404 14.84 75.2606 15.2251 74.9269 15.5076C74.5931 15.7643 74.0796 15.9184 73.3864 15.9184C72.8215 15.9184 72.2567 15.7643 71.7175 15.5076C71.1783 15.2251 70.8445 14.9941 70.6648 14.8143C70.5108 14.6346 70.3824 14.4806 70.3054 14.3779L68.6365 16.0467L68.8162 16.2778C68.9446 16.4319 69.1243 16.6116 69.3811 16.817C69.6635 17.0481 69.9716 17.2535 70.3054 17.4589C70.6648 17.6643 71.127 17.844 71.6661 17.998C72.2053 18.1521 72.7958 18.2291 73.3864 18.2291C74.7471 18.2291 75.8768 17.844 76.7241 17.0994C77.5714 16.3548 78.0079 15.4305 78.0079 14.3779C78.0079 13.6846 77.8538 13.0941 77.5457 12.632C77.2376 12.1441 76.8525 11.7847 76.3647 11.5536C75.9025 11.2969 75.389 11.0915 74.8498 10.9117C74.3107 10.732 73.8228 10.5523 73.335 10.4496C72.8729 10.3212 72.4877 10.1158 72.1796 9.88473C71.8715 9.65366 71.7175 9.34556 71.7175 8.98611C71.7175 8.65233 71.8715 8.34423 72.2053 8.08748C72.5134 7.83073 72.9499 7.70235 73.5147 7.70235C73.9255 7.70235 74.3363 7.80505 74.7215 7.98478C75.1323 8.1645 75.4147 8.31855 75.5431 8.44693C75.6714 8.57531 75.7741 8.678 75.8255 8.72935L77.4944 7.06048Z" fill="#323264"/>
</svg>

<svg width="79" height="31" fill="none" xmlns="http://www.w3.org/2000/svg"><path d="M5.676 28.546c0-.556-.191-1.025-.567-1.411a1.836 1.836 0 00-1.367-.578c-.485 0-.905.153-1.259.463a1.914 1.914 0 00-.648 1.117h-.518V26.64H.5v3.814h.817V28.9h.518c.081.463.3.855.648 1.166.349.31.768.468 1.259.468.533 0 .991-.19 1.367-.577a1.94 1.94 0 00.567-1.411zm-.818 0c0 .36-.109.659-.326.893a1.043 1.043 0 01-1.575 0c-.223-.234-.332-.534-.332-.893 0-.36.109-.66.332-.9a1.057 1.057 0 011.574 0c.218.24.327.54.327.9zM6.98 26.64v3.813h.817V29.2h.79c.393 0 .72-.126.976-.37.256-.246.386-.551.386-.91 0-.366-.13-.665-.386-.916-.262-.245-.583-.365-.976-.365H6.98zm1.58.735c.164 0 .3.054.409.158a.514.514 0 01.163.386.515.515 0 01-.163.387.572.572 0 01-.409.158h-.763v-1.09h.763zm6.07 3.078v-3.814h-.708l-1.88 2.425v-2.425h-.816v3.814h.708l1.88-2.425v2.425h.817zm1.032-.736v1.526h.818v-.79h2.288v.79h.817v-1.526h-.463V26.64H16.48v1.172c0 .256-.022.495-.066.719a3.644 3.644 0 01-.142.544 2.447 2.447 0 01-.185.365c-.07.11-.114.18-.141.213-.033.027-.05.054-.066.065h-.218zm1.635-1.906v-.436h1.008v2.342h-1.607l.065-.065c.038-.044.087-.114.147-.218s.114-.223.174-.36c.06-.136.11-.321.147-.544.044-.224.066-.463.066-.72zm6.859 2.642v-3.814h-.708l-1.88 2.425v-2.425h-.817v3.814h.708l1.88-2.425v2.425h.817zm2.285-3.813h-.817v1.17c0 .458.12.812.36 1.063.244.256.577.381 1.002.381.365 0 .664-.07.899-.218v1.417h.817v-3.814h-.817v1.607l-.093.071c-.06.044-.152.087-.278.136a1.187 1.187 0 01-.392.066c-.218 0-.387-.06-.507-.18-.114-.125-.174-.3-.174-.528v-1.172zm7.052 0h-.818v1.525h-1.634v-1.526h-.817v3.814h.817V28.9h1.634v1.553h.818v-3.814zm3.485 2.206h-.927l.464-1.253.463 1.253zm.272.708l.327.899h.872l-1.498-3.814h-.872l-1.498 3.814h.871l.327-.9h1.471zm4.761-2.914h-.817v3.813h.817v-1.09l.49-.545 1.117 1.635h.954l-1.526-2.234 1.417-1.58h-.953l-1.499 1.662v-1.662zm4.219 1.906c0-.349.12-.649.36-.888.234-.245.523-.365.866-.365.344 0 .633.12.867.365.24.24.36.539.36.888 0 .354-.12.648-.36.888a1.148 1.148 0 01-.867.365c-.343 0-.632-.12-.866-.365-.24-.24-.36-.534-.36-.888zm-.844 0a1.9 1.9 0 00.6 1.405c.397.387.888.583 1.47.583.583 0 1.074-.196 1.471-.583a1.9 1.9 0 00.6-1.405 1.89 1.89 0 00-.6-1.406c-.397-.387-.888-.583-1.47-.583-.584 0-1.074.196-1.471.583a1.89 1.89 0 00-.6 1.406zm7.488-.246l-1.307-1.66h-.736v3.813h.817v-2.534l1.226 1.553L54.1 27.91v2.544h.817V26.64h-.724l-1.319 1.662zm6.806-1.66h-3.242v3.813h.817v-3.078h1.608v3.078h.817v-3.814zm3.485 2.206h-.926l.463-1.253.463 1.253zm.273.708l.326.899h.872l-1.498-3.814h-.872l-1.498 3.814h.872l.327-.9h1.47zm5.554-2.914h-.818v1.525H66.54v-1.526h-.817v3.814h.817V28.9h1.634v1.553h.818v-3.814zm2.339 0h-.817v3.813h.817v-3.814zm4.355 0h-1.689c-.38 0-.692.119-.937.359-.245.24-.37.54-.37.893 0 .153.027.294.07.43.05.137.104.24.17.317.06.076.125.147.207.212.076.065.13.109.163.125.027.011.055.028.07.033l-.816 1.444h.871l.736-1.335h.708v1.335h.817v-3.814zm-2.179 1.252a.506.506 0 01.518-.518h.844v1.009h-.844a.524.524 0 01-.37-.142.465.465 0 01-.148-.349z" fill="#46466E"/><path d="M2.99 0H.5v17.988h2.49v-6.674c0-1.129.281-2.02.843-2.646.562-.628 1.33-.954 2.283-.954.818 0 1.502.301 2.051.878.55.59.83 1.33.83 2.22V18H11.5v-7.188c0-1.655-.452-2.96-1.355-3.938-.904-.979-2.088-1.468-3.528-1.468-.416 0-.83.05-1.234.163a5.2 5.2 0 00-1.013.377 5.139 5.139 0 00-.757.464c-.232.175-.39.3-.464.376-.073.075-.134.126-.158.163V0z" fill="#F0145A"/><path d="M17.067 0H14.5v17.973h2.567V0zm15.144 12.709l.128-1.284c0-1.72-.564-3.158-1.72-4.313-1.155-1.156-2.593-1.72-4.313-1.72-1.72 0-3.21.616-4.442 1.848-1.232 1.233-1.849 2.696-1.849 4.442 0 1.797.642 3.338 1.9 4.621 1.258 1.284 2.773 1.926 4.52 1.926.667 0 1.283-.103 1.9-.282.615-.206 1.129-.411 1.488-.616.385-.232.77-.488 1.104-.77.334-.283.565-.489.668-.617.103-.128.18-.205.23-.282l-1.668-1.67-.385.489c-.257.308-.693.616-1.31.95a4.3 4.3 0 01-2.028.487c-1.001 0-1.849-.308-2.567-.95-.72-.642-1.156-1.386-1.284-2.259h9.628zm-5.905-5.135c.95 0 1.72.282 2.362.822.616.564 1.001 1.258 1.155 2.13h-7.137c.23-.872.642-1.566 1.283-2.13.616-.54 1.412-.822 2.337-.822zm17.879 9.654c0 1.13-.334 2.054-1.027 2.773-.667.693-1.514 1.052-2.567 1.052-.462 0-.925-.077-1.361-.205a4.042 4.042 0 01-1.053-.462 5.954 5.954 0 01-.796-.59c-.23-.232-.385-.386-.462-.463-.077-.077-.128-.154-.18-.205l-1.668 1.669.205.256c.128.18.36.411.668.668.308.231.667.488 1.078.744.41.232.924.437 1.566.617a7.4 7.4 0 002.003.282c1.746 0 3.184-.59 4.39-1.771 1.181-1.207 1.772-2.645 1.772-4.39V5.647h-2.568v1.284l-.436-.385c-.283-.257-.72-.514-1.335-.77a5.085 5.085 0 00-1.952-.385c-1.566 0-2.9.59-4.056 1.797-1.156 1.207-1.72 2.644-1.72 4.365 0 1.72.564 3.158 1.72 4.364 1.155 1.207 2.49 1.798 4.056 1.798.437 0 .848-.052 1.284-.154a8.79 8.79 0 001.027-.386c.283-.128.54-.282.77-.462.232-.18.411-.308.463-.36l.18-.179v1.053zm-6.932-5.674c0-1.079.334-1.977 1.027-2.722.693-.745 1.515-1.13 2.44-1.13.924 0 1.745.385 2.438 1.13.668.745 1.027 1.643 1.027 2.722 0 1.078-.36 1.977-1.027 2.721-.693.745-1.514 1.13-2.439 1.13-.924 0-1.746-.385-2.439-1.13-.693-.744-1.027-1.643-1.027-2.721zm22.902 6.418v-7.959c0-1.31-.488-2.413-1.438-3.286-.95-.899-2.182-1.335-3.697-1.335a6.7 6.7 0 00-1.746.23c-.565.18-1.027.36-1.361.566a6.35 6.35 0 00-.976.718c-.308.257-.487.437-.59.54-.077.102-.154.18-.206.256l1.67 1.67.333-.437c.205-.283.565-.54 1.104-.822.54-.282 1.13-.41 1.772-.41.744 0 1.36.23 1.848.667.488.436.72 1.001.72 1.643l-4.494.77c-1.104.18-2.003.617-2.619 1.31-.642.693-.976 1.54-.976 2.542 0 .95.411 1.771 1.233 2.49.847.745 1.874 1.104 3.132 1.104.437 0 .848-.051 1.258-.18.437-.102.77-.23 1.053-.36a3.83 3.83 0 00.77-.461c.231-.18.385-.308.488-.36.077-.077.129-.154.154-.18v1.284h2.568zm-5.906-2.054c-.667 0-1.206-.154-1.592-.462-.41-.308-.59-.667-.59-1.078 0-.437.128-.822.41-1.104a2.06 2.06 0 011.13-.565l3.98-.642v.257c0 1.155-.282 2.028-.873 2.67-.59.616-1.412.924-2.465.924zM65.82 0h-2.567v17.973h2.567V0zm11.674 7.06l-.154-.18a5.531 5.531 0 00-.487-.41c-.232-.18-.488-.334-.77-.514-.283-.154-.668-.282-1.13-.41a6.666 6.666 0 00-1.438-.154c-1.258 0-2.285.359-3.107 1.078-.847.745-1.258 1.566-1.258 2.516 0 .693.154 1.258.462 1.772.308.488.693.847 1.181 1.052.462.231.976.463 1.515.642.54.18 1.027.334 1.515.462.462.154.847.334 1.155.565.308.231.462.54.462.899 0 .462-.18.847-.513 1.13-.334.256-.847.41-1.54.41-.566 0-1.13-.154-1.67-.41-.539-.283-.873-.514-1.052-.694a9.95 9.95 0 01-.36-.436l-1.669 1.669.18.23c.129.155.308.335.565.54.282.231.59.436.924.642.36.205.822.385 1.361.539.54.154 1.13.231 1.72.231 1.361 0 2.49-.385 3.338-1.13.847-.744 1.284-1.668 1.284-2.721 0-.693-.154-1.284-.462-1.746-.308-.488-.694-.847-1.181-1.078a8.963 8.963 0 00-1.515-.642c-.54-.18-1.027-.36-1.515-.462a3.469 3.469 0 01-1.155-.565 1.085 1.085 0 01-.463-.899c0-.334.154-.642.488-.899.308-.256.745-.385 1.31-.385.41 0 .821.103 1.207.283.41.18.693.334.821.462l.282.282 1.67-1.669z" fill="#323264"/></svg>
